X:2911
L:1/8
Q:1/2=90
M:2/2
K:D
 B | AFED (G2 G)B | AFED E/E/E EB | AFED BcdB | AFdF D/D/D D :: e | defd gfec | defd ecBA | 
 defd gfeg | (f/g/a) Ac d2 d |]

